dist/assets/images/sale-icon.svg

<svg width="57" height="57" viewBox="0 0 57 57" fill="none" xmlns="http://www.w3.org/2000/svg">
<path d="M23.8635 2.65715C26.2651 -0.27281 30.7349 -0.272814 33.1364 2.65714L36.1981 6.39249C37.4898 7.96838 39.4073 8.89504 41.4415 8.92573L46.2612 8.99844C50.0401 9.05544 52.8298 12.5617 52.0434 16.2752L51.0415 21.0058C50.619 23.0009 51.0922 25.0817 52.336 26.6957L55.2844 30.5217C57.5983 33.5244 56.6021 37.899 53.2207 39.5961L48.9097 41.7598C47.0905 42.6728 45.7641 44.342 45.282 46.3235L44.1388 51.0218C43.2417 54.709 39.2133 56.6534 35.784 55.0598L31.4101 53.0272C29.5643 52.1694 27.4357 52.1694 25.5899 53.0272L21.216 55.0598C17.7867 56.6534 13.7583 54.709 12.8612 51.0218L11.718 46.3235C11.2359 44.342 9.90948 42.6728 8.09028 41.7598L3.77931 39.5961C0.397882 37.899 -0.598315 33.5244 1.71559 30.5217L4.66397 26.6957C5.90776 25.0817 6.38102 23.0009 5.95849 21.0058L4.95665 16.2752C4.17021 12.5617 6.95991 9.05544 10.7388 8.99844L15.5585 8.92573C17.5927 8.89504 19.5102 7.96838 20.8019 6.39249L23.8635 2.65715Z" stroke="#F64F00" stroke-width="0.919355"/>
<path d="M19.7413 26.4232L19.7476 26.4267L19.754 26.43C20.6048 26.8692 21.5407 27.0857 22.5534 27.0857C23.566 27.0857 24.4937 26.8692 25.3265 26.4277L25.3265 26.4277L25.3303 26.4257C26.1718 25.9695 26.8469 25.3656 27.3439 24.6123L27.3439 24.6123L27.3472 24.6072C27.8471 23.8271 28.0978 22.9651 28.0978 22.0318C28.0978 21.0985 27.847 20.2442 27.3439 19.4815C26.8468 18.728 26.171 18.1335 25.3285 17.6973C24.4958 17.2353 23.5672 17.0081 22.5534 17.0081C21.5377 17.0081 20.5994 17.2361 19.7477 17.6974C18.9238 18.1346 18.2591 18.7296 17.763 19.4815L18.1344 19.7266L17.763 19.4815C17.2599 20.2442 17.0091 21.0985 17.0091 22.0318C17.0091 22.9651 17.2598 23.8271 17.7597 24.6072L17.7597 24.6072L17.763 24.6123C18.2581 25.3627 18.9206 25.9663 19.7413 26.4232ZM18.8786 37.5076L18.5788 37.8519L18.9211 38.1541L20.7701 39.7862L21.1346 40.108L21.4354 39.726L29.6879 29.2458L38.1249 19.4606L38.424 19.1136L38.0781 18.8133L36.1983 17.1811L35.8313 16.8625L35.5336 17.2466L27.5294 27.5733L18.8786 37.5076ZM31.6672 39.3294L31.6672 39.3295L31.6755 39.3339C32.5083 39.7754 33.436 39.992 34.4486 39.992C35.4611 39.992 36.3888 39.7754 37.2216 39.3339L37.2217 39.3339L37.2254 39.3319C38.0669 38.8758 38.742 38.2718 39.239 37.5185C39.7421 36.7559 39.9929 35.9016 39.9929 34.9683C39.9929 34.036 39.7427 33.1826 39.2408 32.4207C38.7444 31.6471 38.0685 31.0411 37.2236 30.6036C36.3909 30.1415 35.4624 29.9143 34.4486 29.9143C33.4339 29.9143 32.5046 30.1419 31.6713 30.6048C30.847 31.0427 30.1744 31.6473 29.6599 32.4153L29.6581 32.418C29.155 33.1807 28.9042 34.0349 28.9042 34.9683C28.9042 35.9016 29.155 36.7559 29.6581 37.5185L29.658 37.5186L29.6634 37.5264C30.1779 38.2723 30.8482 38.8735 31.6672 39.3294ZM35.6402 36.4525L35.6401 36.4525L35.6332 36.461C35.3041 36.8645 34.9183 37.0475 34.4486 37.0475C34.0032 37.0475 33.6121 36.8673 33.2569 36.4525C32.8993 36.035 32.7203 35.5477 32.7203 34.9683C32.7203 34.3889 32.8993 33.9015 33.2569 33.484L33.2569 33.484L33.2626 33.4772C33.6204 33.0427 34.0103 32.8588 34.4486 32.8588C34.8939 32.8588 35.285 33.039 35.6402 33.4537C35.9956 33.8687 36.1768 34.3651 36.1768 34.9683C36.1768 35.5477 35.9978 36.035 35.6402 36.4525ZM23.7423 23.5497C23.3878 23.962 22.9976 24.1413 22.5534 24.1413C22.1081 24.1413 21.717 23.9611 21.3618 23.5463C21.0064 23.1314 20.8252 22.6349 20.8252 22.0318C20.8252 21.4524 21.0042 20.965 21.3618 20.5475C21.717 20.1328 22.1081 19.9525 22.5534 19.9525C22.9988 19.9525 23.3899 20.1328 23.7451 20.5475C24.1027 20.965 24.2817 21.4524 24.2817 22.0318C24.2817 22.6099 24.1033 23.1097 23.7423 23.5497Z" stroke="#F64F00" stroke-width="0.919355"/>
</svg>

<svg width="57" height="57" fill="none" xmlns="http://www.w3.org/2000/svg"><path d="M23.863 2.657c2.402-2.93 6.872-2.93 9.273 0l3.062 3.735a6.915 6.915 0 005.243 2.534l4.82.072c3.78.057 6.569 3.564 5.782 7.277l-1.002 4.73a6.96 6.96 0 001.295 5.69l2.948 3.827c2.314 3.002 1.318 7.377-2.063 9.074L48.91 41.76a6.94 6.94 0 00-3.628 4.564l-1.143 4.698c-.897 3.687-4.926 5.631-8.355 4.038l-4.374-2.033a6.903 6.903 0 00-5.82 0l-4.374 2.033c-3.43 1.593-7.458-.351-8.355-4.038l-1.143-4.698A6.94 6.94 0 008.09 41.76l-4.31-2.164C.397 37.9-.599 33.524 1.715 30.522l2.948-3.826a6.96 6.96 0 001.294-5.69l-1.001-4.73c-.787-3.714 2.003-7.22 5.782-7.278l4.82-.072a6.915 6.915 0 005.243-2.534l3.061-3.735z" stroke="#F64F00" stroke-width=".919"/><path d="M19.741 26.423l.007.004.006.003c.85.44 1.787.656 2.8.656 1.012 0 1.94-.217 2.773-.658h0l.003-.002c.842-.456 1.517-1.06 2.014-1.814h0l.003-.005c.5-.78.75-1.642.75-2.575a4.54 4.54 0 00-.753-2.55c-.497-.754-1.173-1.348-2.016-1.785-.832-.462-1.76-.689-2.775-.689s-1.954.228-2.805.69a5.323 5.323 0 00-1.985 1.784l.371.245-.371-.245a4.54 4.54 0 00-.754 2.55c0 .933.25 1.795.75 2.575h0l.004.005a5.576 5.576 0 001.978 1.811zm-.862 11.085l-.3.344.342.302 1.85 1.632.364.322.3-.382 8.253-10.48 8.437-9.785.299-.347-.346-.3-1.88-1.633-.367-.319-.297.385-8.005 10.326-8.65 9.935zm12.788 1.821h0l.008.005c.833.441 1.761.658 2.774.658 1.012 0 1.94-.217 2.773-.658h0l.003-.002c.842-.456 1.517-1.06 2.014-1.813a4.54 4.54 0 00.754-2.55 4.54 4.54 0 00-.752-2.548 5.177 5.177 0 00-2.017-1.817c-.833-.462-1.762-.69-2.775-.69-1.015 0-1.944.228-2.778.69a5.478 5.478 0 00-2.011 1.811l-.002.003a4.54 4.54 0 00-.754 2.55c0 .934.251 1.788.754 2.55h0l.005.008a5.855 5.855 0 002.004 1.803zm3.973-2.877h0l-.007.009c-.329.404-.715.587-1.184.587-.446 0-.837-.18-1.192-.596a2.195 2.195 0 01-.537-1.484c0-.58.18-1.067.537-1.484h0l.006-.007c.357-.434.747-.618 1.186-.618.445 0 .836.18 1.191.595.356.415.537.911.537 1.514 0 .58-.18 1.067-.537 1.484zM23.742 23.55c-.354.412-.744.591-1.189.591-.445 0-.836-.18-1.191-.595-.356-.415-.537-.911-.537-1.514 0-.58.18-1.067.537-1.485.355-.414.746-.595 1.191-.595.446 0 .837.18 1.192.595.358.418.537.905.537 1.485 0 .578-.179 1.078-.54 1.518z" stroke="#F64F00" stroke-width=".919"/></svg>
